X:1
T:Amici, amici, è giunta l'ora
T:Amici, amici, è giunta l'ora
T:Claudio Monteverdi
C:Claudio Monteverdi
%%score [ 1 2 3 4 ]
L:1/8
Q:1/4=110
M:6/4
K:C
V:1 treble nm="MusicXML Part"
V:2 treble-8 nm="MusicXML Part"
V:3 bass nm="MusicXML Part"
V:4 bass nm="MusicXML Part"
V:1
 z12 | z12 | z12 | z12 | z12 |[M:4/4] z8 | z8 | z8 |[M:9/4] z18 |[M:6/4] z12 | z12 | z12 | z12 | %13
w: |||||||||||||
[M:4/4] z8 | z8 | z8 |[M:6/4] z12 | z12 | z12 | z12 |[M:4/4] z8 || %21
w: ||||||||
[M:6/4]"^FAMIGLIARI" z2 A,2 A,2 _B,2 =B,2 B,2 | C2 ^C3 C D6 | z12 | z12 | z2 E2 E2 F2 ^F2 F2 | %26
w: Non mo- rir, non mo-|rir, Se- ne- ca,|||non mo- rir, non mo-|
[M:3/4] G2 ^G2 G2 |[M:4/4] A4 z2 _BA | _B2 z2 E>E E2 | D2 z2 z4 | z8 | z8 | z GGG G2 F2 | %33
w: ir, Se- ne-|ca non mo-|rir, Se- ne- ca,|no.|||No no mo- rir non|
 EEEE E2 D2 | C4 z4 | AAAA A2 G2 | F>E E>D D2 C2 | B,2 C2 B,3 B, |[M:6/8] !fermata!A,4 || %39
w: vo', mo- rir, mo- ri non|vo',|io per m,e mo- rir non|vo', no no no no mo-|rir mo- rir non|vo'.|
"^Ritornello" fe | d c/_B/ A/B/ c>Bc | A2 F2 cc | e>fg a/b/ c'>b | c'2 c'2 ag | g f/e/ d/e/ f e2 | %45
w: _ _||||||
 d2 d2 || AA | F2 E EDE | ^C2 C2 z2 | z6 | z6 | z6 | z6 | z6 | z2 z2 AG | GFF F E2 | D2 D2 || %57
w: |Ques- ta|vi- taè dol- * ce|trop- po||||||fi- nal-|men- * teè lie- vein|trop- po.|
"^Ritornello" fe | d c/_B/ A/B/ c>Bc | A2 F2 cc | e>fg a/b/ c'>b | c'2 c'2 ag | g f/e/ d/e/ f e2 | %63
w: _ _||||||
 d2 d2 || AA | F2 E EDE | ^C2 C2 z2 | z6 | z6 | z6 | z6 | z6 | z2 z2 AG | GFF F E2 | D2 D2 z2 | %75
w: |Se mi|cor- coal son- * no|lie- ve||||||mai non|dà _ quel che ri-|ce- ve|
[M:4/4] z8 | z8 | z GGG G2 F2 | EEEE E2 D2 | C4 z4 | AAAA A2 G2 | F>E E>D D2 C2 | B,2 C2 B,3 B, | %83
w: ||No no mo- rir non|vo', mo- rir mo- rir non|vo',|io per me mo- rir non|vo', no no no no mo-|rir, mo- rir non|
[M:6/4] A,2 A,2 A,2 _B,2 =B,2 B,2 | C2 ^C3 C D6 | z12 | z12 | z2 E2 E2 F2 ^F2 F2 | %88
w: vo'. Non mo- rir, non mo-|rir, Se- ne- ca,|||non mo- rir, non mo-|
[M:3/4] G2 ^G2 G2 |[M:4/4] A4 z2 _BA | _B2 z2 E>E E2 |[M:6/8] D2 z2 ||"^Ritornello" fe | %93
w: rir, Se- ne-|ca, non mo-|rir Se- ne- ca|no||
 d c/_B/ A/B/ c>Bc | A2 F2 cc | e>fg a/b/ c'>b | c'2 c'2 ag | g f/e/ d/e/ f e2 | d2 d2 z2 || %99
w: ||||||
[M:4/4] z8 | z8 | z8 | z8 | z8 | z8 | z8 | z8 | z8 | z8 | z8 | z8 | z8 | z8 | z8 | z8 | z8 | z8 | %117
w: ||||||||||||||||||
 z8 | z8 | z8 | z8 | z8 | z8 | z8 | z8 | z8 | z8 | z8 | z8 | z8 | z8 | z8 | z8 |] %133
w: ||||||||||||||||
V:2
 z12 | z12 | z12 | z12 | z12 |[M:4/4] z8 | z8 | z8 |[M:9/4] z18 |[M:6/4] z12 | z12 | z12 | z12 | %13
w: |||||||||||||
[M:4/4] z8 | z8 | z8 |[M:6/4] z12 | z12 | z12 | z12 |[M:4/4] z8 ||[M:6/4] z12 | z12 | %23
w: ||||||||||
 z2 E2 E2 F2 ^F2 F2 | G2 ^G3 G A2 A2 A2 | _B2 =B2 B2 c2 d2 d2 |[M:3/4] e2 e2 e2 | %27
w: Non mo- rir, non mo-|ir, Se- ne- ca, non mo-|rir, non mo- rir, Se- ne-|ca, Se- ne-|
[M:4/4] f4 z2 g^f | g2 z2 d>d ^c2 | d2 z2 z4 | dddd d2 c2 | B4 z4 | z8 | z ccc c2 B2 | A4 z4 | %35
w: ca, non mo-|rir, Se- ne- ca,|no.|Io per me mo- rir non|vo',||mo- rir, mo- rir non|vo'|
 ffff f2 e2 | d>c c>B B2 A2 | ^G2 A2 A3 G |[M:6/8] !fermata!A4 || d'c' | _b2 c' g2 g | f2 a2 gf | %42
w: io per me mo- rir non|vo', no no no no mo-|rir mo- rir non|vo'.|_ _|||
 c'2 e'2 d'2 | e'2 e'2 f'e' | e'd'f' d'2 ^c' | d'2 d'2 || z2 | z6 | z2 z2 dc | _B2 A B G>F | %50
w: ||||||Ques- to|ciel trop- * poè se-|
 F2 F2 z2 | z6 | z6 | z6 | z2 z2 fe | edd d2 ^c | d2 d2 || d'c' | _b2 c' g2 g | f2 a2 gf | %60
w: re- no,||||fi- nal-|men- * teè lie- vein-|trop- po.|_ _|||
 c'2 e'2 d'2 | e'2 e'2 f'e' | e'd'f' d'2 ^c' | d'2 d'2 || z2 | z6 | z2 z2 dc | _BAB G c2 | %68
w: ||||||Mi ri-|sve- glio in sul mat-|
 A2 F2 z2 | z6 | z6 | z6 | z2 z2 fe | edd d2 ^c | d2 d2 z2 |[M:4/4] dddd d2 c2 | B4 z4 | z8 | %78
w: ti- no,||||mai non|dà _ quel che i-|ce- ve|Io per me mo- rir non|vo'||
 z ccc c2 B2 | A4 z4 | ffff f2 e2 | d>c c>B B2 A2 | ^G2 A2 A3 G |[M:6/4] A2 z2 z2 z2 z2 z2 | z12 | %85
w: mo- rir, mo- rir non|vo'|io per me mo- rir non|vo', no no no no mo-|rir, mo- rir non|vo'||
 z2 E2 E2 F2 ^F2 F2 | G2 ^G3 G A2 A2 A2 | _B2 =B2 B2 c2 d2 d2 |[M:3/4] e2 e2 e2 | %89
w: Non mo- rir, non mo-|rir, Se- ne- ca, non mo-|rir, non mo- rir, Se- ne-|ca Se- ne-|
[M:4/4] f4 z2 g^f | g2 z2 d>d ^c2 |[M:6/8] d2 z2 || d'c' | _b2 c' g2 g | f2 a2 gf | c'2 e'2 d'2 | %96
w: ca, non mo-|rir Se- ne- ca|no.|||||
 e'2 e'2 f'e' | e'd'f' d'2 ^c' | d'2 d'2 z2 ||[M:4/4] z8 | z8 | z8 | z8 | z8 | z8 | z8 | z8 | z8 | %108
w: ||||||||||||
 z8 | z8 | z8 | z8 | z8 | z8 | z8 | z8 | z8 | z8 | z8 | z8 | z8 | z8 | z8 | z8 | z8 | z8 | z8 | %127
w: |||||||||||||||||||
 z8 | z8 | z8 | z8 | z8 | z8 |] %133
w: ||||||
V:3
"^SENECA" z2 z2 D,2 F,3 F, D,2 | A,2 A,2 C2 _B,3 B, A,2 | _B,2 G,4 A,4 A,2 | A,2 A,2 G,2 F,4 E,2 | %4
w: A- mi- ci, a-|mi- ci, è giun- ta, è|giun- ta l'o- ra|Di pra- ti- ca- rein-|
 D,4 ^C,2 D,2 F,2 D,2 |[M:4/4] A,2 z A, B,3 ^C | D2 D,2 A,4 | D,8 | %8
w: fat- ti Quel- la vir-|tù. che tan- to|ce- le- bra-|i.|
[M:9/4] z2 D,2 C,2 _B,,3 C, B,,2 A,,4 A,,2 |[M:6/4] z2 A,2 G,2 F,3 E, D,2 | %10
w: Bre- vean- go- sciaè la mor- te|Un sos- pi pe- re-|
 C,2 C,>C, A,,2 E,4 E,2 | z2 E,2 E,2 D,3 D, D,2 | C,4 C,2 B,,3 B,, B,,2 |[M:4/4] A,,4 A,,4 | %14
w: gri- noe- sce dal co- re,|O- v'è sta- to mol-|t'an- ni Qua- siin- o-|spi- zio,|
 z2 A,,A,, A,,3 ^G,, | A,,4 A,,4 |[M:6/4] A,,2 B,,2 ^C,2 D,C, D,E, F,D, | %17
w: co- me fo- re-|stie- ro,|E se ne vo- * * * * *|
 E,D, E,F, G,E, F,2 D,3 D, | A,2 A,2 A,2 A,3 G, A,^F, | G,3 A, _B,2 B,/A,/B,/G,/ A,4 | %20
w: * * * * * * * laal- l'O-|lim- po, Del- la fe- li- ci-|tà sog- gior- no- * * * ve-|
[M:4/4] !fermata!D,8 ||[M:6/4] z12 | z2 A,,2 A,,2 _B,,2 =B,,2 B,,2 | C,2 ^C,3 C, D,6 | %24
w: ro.||Non mo- rir, non mo-|rir, Se- ne- ca,|
 z2 E,2 E,2 F,2 ^F,2 F,2 | G,2 ^G,3 G, A,6- |[M:3/4] A,6- |[M:4/4] A,4 z2 A,A, | G,2 z2 A,>A, A,2 | %29
w: non mo- rir, non mo-|rir, Se- ne- ca,|_|* non mo-|rir, Se- ne- ca,|
 D,2 z2 z4 | z8 | z G,G,G, G,2 F,2 | E,4 z4 | z8 | F,F,F,F, F,2 E,2 | D,8- | D,4 D,4 | E,6 E,2 | %38
w: no.||Mo- rir, mo- rir non|vo',||io per me mo- rir non|vo'|_ mo-|rir non|
[M:6/8] !fermata!A,,4 || AA | F2 F F2 E | C2 C2 EF | G2 c BAG | G2 G2 FG | A2 _B A3 | F2 F2 || z2 | %47
w: vo'.|_ _||||||||
 z6 | z6 | z6 | z2 z2 A,G, | F,2 E, F,2 D, | E,2 C,2 CB, | A,G,F, E,D,E, | A,,2 A,,2 D,E, | %55
w: |||O- gnia-|mar, o- gni ve-|le- no Fi- nal-|men- * teè- lie- * vein-|top- po fi- nal-|
 F,2 G, A,2 A, | D,2 D,2 || AA | F2 F F2 E | C2 C2 EF | G2 c BAG | G2 G2 FG | A2 _B A3 | F2 F2 || %64
w: men- teè- lie- vein-|top- po|_ _|||||||
 z2 | z6 | z6 | z6 | z2 z2 A,G, | ^F,2 E, F,2 G, | E,2 C,2 CB, | A,G,F, E,D,E, | A,,2 A,,2 D,E, | %73
w: ||||Maun a-|vel di mar- mo|fi- no Mai non|dà _ quel _ che ri-|ce- ve, mai non|
 F,2 G, A,2 A, | D,2 D,2 z2 |[M:4/4] z8 | z G,G,G, G,2 F,2 | E,4 z4 | z8 | F,F,F,F, F,2 E,2 | %80
w: dà quel che ri-|ce- ve.||Mo- rir, mo- rir non|vo',||io per me mo- ir non|
 D,8- | D,4 D,4 | E,6 E,2 |[M:6/4] A,,2 z2 z2 z2 z2 z2 | z2 A,,2 A,,2 _B,,2 =B,,2 B,,2 | %85
w: vo',|_ mo-|rir non|vo'|Non mo- rir, non mo-|
 C,2 ^C,3 C, D,6 | z2 E,2 E,2 F,2 ^F,2 F,2 | G,2 ^G,3 G, A,6- |[M:3/4] A,6- |[M:4/4] A,4 z2 A,A, | %90
w: rir, Se- ne- ca|non mo- rir, non mo-|rir, Se- ne- ca|_|* non mo-|
 G,2 z2 A,>A, A,2 |[M:6/8] D,2 z2 || AA | F2 F F2 E | C2 C2 EF | G2 c BAG | G2 G2 FG | A2 _B A3 | %98
w: rir Se- ne- ca|no.|||||||
 F2 F2 z2 ||[M:4/4][K:bass] z2 D,4 A,2- | A,2 ^C,4 C,D, | D,2 D,2 z2 D,D, | ^F,2 F,G, G,2 ^G,2 | %103
w: |Sup- pri-|* me- tei sin-|gul- ti, Ri- man-|da- te quei pian- *|
 E,2 E,2 z2 E,E, | E,2 D,E, C,2 A,,2 | z2 E,E, A,2 A,B, | C>C C2 C2 D2 | ^G,<A, B,>G, A,2 A,2 | %108
w: * ti Dai ca-|na- li de- gl'oc- chi|Al- le fon- ti del-|l'a- ni- me, o _|mie- * i ca- * ri|
 z2 A,G,/G,/ G,G,/^F,/ F,F, | ^F,E, E,E,/F,/ D,D, D,C,/C,/ | C,B,, B,,>A,, A,,A,,/B,,/ G,,G,, | %111
w: Va- da quel- l'ac- qua o- ma- i|A la- var- vi dai co- ri Del- l'in- co-|stan- za vil le mac- chie in- de- gne.|
 z2 G,G, G,2 G,^F, | G,2 G,2 z2 B,2 | C>C C2 z2 G,2 | ^C2 C2 z2 ^F,2- | F,^F, F,2 B,2 _B,2 | %116
w: Al- tr'e- se- quie ri-|cer- ca, Ch'un|ge- mi- to do-|len- te Se-|* ne- ca mo- *|
 ^F,3 G, G,3 F, | G,8 | G,2 G,D, G,2 G,2 | z G,G,G, E,3 D, | C,2 C,2 z2 z C | B,A,G,F, E,D,C,B,, | %122
w: * ri- en- te|.|I- te- ne tut- ti|a pre- pa- rar- miil|ba- gno, Che|se la vi- ta cor- re Co- meil|
 A,,2 A,,A,, G,,2 G,,2 | z2 B,,B,, C,2 ^C,C, | D,2 D,2 z2 D,D, | E,2 E,E, F,2 F,F, | %126
w: ri- vo flu- en- te,|In un te- pi- do|ri- vo Ques- to|san- guein- no- cen- te io|
 G,2 z2 A,2 C2 | _B,2 B,B, F,3 G, | A,2 A,2 z2 F,^C, | D,4 D,2 A,,2 | _B,,4 z2 B,,2 | A,,8 | %132
w: vo', vo' che|va- da Aim- por- po-|rar- mi del mo-|rir, del mo-|rir la|stra-|
 !fermata!D,8 |] %133
w: da.|
V:4
 D,4 D,2 D,4 D,2 | A,2 A,2 C2 _B,4 A,2 | _B,2 G,4 A,6 | A,2 A,2 G,2 F,4 E,2 | D,4 ^C,2 D,4 D,2 | %5
[M:4/4] A,4 G,4 | D,4 A,4 | D,8 |[M:9/4] z2 D,2 C,2 _B,,4 B,,2 A,,4 A,,2 | %9
[M:6/4] z2 A,2 E,2 F,2 D,4 | C,2 A,,4 E,4 E,2 | E,6 D,6 | C,6 B,,6 |[M:4/4] A,,8 | A,,4 E,,4 | %15
 A,,8 |[M:6/4] A,,2 B,,2 ^C,2 D,6 | E,6 F,2 D,4 | A,6 ^F,6 | G,4 _B,2 G,2 A,4 | %20
[M:4/4] !fermata!D,8 ||[M:6/4] z2 A,2 A,2 _B,2 =B,2 B,2 | C2 A,,2 A,,2 _B,,2 =B,,2 B,,2 | %23
 C,2 ^C,4 D,2 D,4 | E,2 E,4 F,2 ^F,4 | G,2 ^G,3 G, A,6- |[M:3/4] A,6- |[M:4/4] A,4 z2 A,2 | %28
 G,2 z2 A,4 | D,2 z2 z4 | D2 D2 D2 C2 | B,2 G,2 G,2 F,2 | E,6 D,2 | C,8 | F,6 E,2 | D,8 | D,8 | %37
 E,6 E,2 |[M:6/8] !fermata!A,,4 || DA, | _B,2 F, C2 C, | F,2 F,2 E,D, | C,>B,,A,, G,,F,,G,, | %43
 C,2 C,2 D,E, | F,2 G, A,2 A,, | D,2 D,2 || D,^C, | D,2 E, F,2 G, | A,2 A,2 DA, | %49
 _B,2 F, _B,,2 C, | F,,2 F,,2 F,E, | D,2 ^C, D, G,,2 | C,2 C, C2 B, | A,2 F, D,2 E, | %54
 A,,2 A,,2 D,E, | F,2 G, A,2 A, | D,2 D,2 || DA, | _B,2 F, C2 C, | F,2 F,2 E,D, | %60
 C,>B,,A,, G,,F,,G,, | C,2 C,2 D,E, | F,2 G, A,2 A,, | D,2 D,2 || D,^C, | D,2 E, F,2 G, | %66
 A,2 A,2 D,A,, | _B,,2 B,, C,2 C, | F,,2 F,,2 F,E, | D,2 ^C, D, G,,2 | C,2 C,2 CB, | %71
 A,G,F, E,D,E, | A,,2 A,,2 D,E, | F,2 G, A,2 A, | D,2 D,2 z2 |[M:4/4] D2 D2 D2 C2 | %76
 B,2 G,2 G,2 F,2 | E,6 D,2 | C,8 | F,6 E,2 | D,8- | D,4 D,4 | E,6 E,2 | %83
[M:6/4] A,,2 A,2 A,2 _B,2 =B,2 B,2 | C2 A,,2 A,,2 _B,,2 =B,,2 B,,2 | C,2 ^C,4 D,2 D,4 | %86
 E,2 E,4 F,2 ^F,4 | G,2 ^G,3 G, A,6- |[M:3/4] A,6 |[M:4/4] A,4 z2 A,A, | G,2 z2 A,4 | %91
[M:6/8] D,2 z2 || DA, | _B,2 F, C2 C, | F,2 F,2 E,D, | C,>B,,A,, G,,F,,G,, | C,2 C,2 D,E, | %97
 F,2 G, A,2 A,, | D,2 D,2 z2 ||[M:4/4] D,8 | D,8 | D,8 | D,4 B,,4 | A,,8 | A,,8 | A,,8 | A,,8 | %107
 B,,4 A,,4 | A,,4 D,4 | D,3 ^C, D,4 | D,2 G,,2 A,,2 G,,2 | G,,8 | G,,8 | E,,8 | E,4 D,4 | D,8 | %116
 D,2 C,2 D,4 | G,,8 | G,,8 | G,,8 | C,4 z2 z C | G,A,E,F, C,4 | A,,4 G,,4 | z2 B,,2 C,2 A,,2 | %124
 D,4 z2 D,2 | E,4 F,4 | G,2 z2 A,2 C2 | _B,4 F,3 G, | A,4 F,3 ^C, | D,6 A,,2 | G,,8 | A,,8 | %132
 !fermata!D,8 |] %133

